X: 42
T: 38. QUADRILLE
B: Sam Bayard, "Hill Country Tunes" 1944 #38
S: Played by Mrs. Sarah Armstrong, (near) Derry, PA, Nov 18, 1943.
N: The first half of this quadrille is known in New England: see Burchenal, "American Country-Dances", No.1.
N: In Seventy Good Old Dances, No.8, p.24, is a tune which bears a very slight resemblance to this,
N: and which may or may not be a relative.
R: jig
M: 6/8
L: 1/8
Z: 2010 John Chambers <jc:trillian.mit.edu>
K: A
e | eaf e2c | BAB c3 | E2A B2B | cBc dcd |
eaf e2c | BAB c3 | E3 EFG | A3 A2 :: e- |
ecA Acd | ecA A2c | ecA cAc | "a."B2B dcd |
ecA Acd | ecA A2c | "b."e2e efg |1 a3 a2 :|2 a3 a2f |]
P: Var:
"a."B>BB || "b."e>ee |] y6 y6 y6 y6 y6 y6 y6 y6 y6 y6

%%sep 2 1 500
%%sep 1 1 500

